X:2664
T:Polonäs efter Pehr Andersson
S:efter Pehr Andersson
B:Pehr Anderssons notbok, nr 23
B:http://www.smus.se/earkiv/fmk/browselarge.php?lang=sw&katalogid=Ma+1&bildnr=00008
O:Måstorp, Närke
R:Slängpolska
Z:Nils L
M:3/4
L:1/8
K:G
g2 gb ag | fe de fd | g2 gb ag | fe d2 d2 ::
((3Bcd) e2 d2 | "^?"c2 BA BG | ((3Bcd) e2 d2 | "^?"c2 BA BG |
dd ed cB | ((3AGF) G2 G,2 :|
(:musicend:)
(:music:)
